X: 7344
T: Cliffs Of Moher, The
R: jig
M: 6/8
K: Adorian
a3 bag|eaf ged|c2A BAG|EFG ABd|
efe ded|cec BeB|GAB dBA|EFG|

